src/topics/icons/twilio.svg

<svg height="256" preserveAspectRatio="xMidYMid" viewBox="0 0 256 256" width="256" xmlns="http://www.w3.org/2000/svg"><g fill="#cf272d"><path d="m127.859784 222.303602c-52.0051782 0-94.1633857-42.158208-94.1633857-94.162324 0-52.0051784 42.1582075-94.1633859 94.1633857-94.1633859 52.004116 0 94.162324 42.1582075 94.162324 94.1633859 0 52.004116-42.158208 94.162324-94.162324 94.162324zm0-222.02210822c-70.6145724 0-127.859784 57.24521162-127.859784 127.85978422 0 70.614573 57.2452116 127.858722 127.859784 127.858722 70.614573 0 127.858722-57.244149 127.858722-127.858722 0-70.6145726-57.244149-127.85978422-127.858722-127.85978422z"/><path d="m133.115751 96.2974274c0-14.6822905 11.903469-26.5857594 26.585759-26.5857594 14.683353 0 26.58576 11.9034689 26.58576 26.5857594 0 14.6833526-11.902407 26.5857596-26.58576 26.5857596-14.68229 0-26.585759-11.902407-26.585759-26.5857596"/><path d="m133.115751 159.983004c0-14.68229 11.903469-26.585759 26.585759-26.585759 14.683353 0 26.58576 11.903469 26.58576 26.585759 0 14.683353-11.902407 26.585759-26.58576 26.585759-14.68229 0-26.585759-11.902406-26.585759-26.585759"/><path d="m69.4312365 159.983004c0-14.68229 11.9034689-26.585759 26.5857594-26.585759 14.6833531 0 26.5857591 11.903469 26.5857591 26.585759 0 14.683353-11.902406 26.585759-26.5857591 26.585759-14.6822905 0-26.5857594-11.902406-26.5857594-26.585759"/><path d="m69.4312365 96.2984896c0-14.6833527 11.9034689-26.5857593 26.5857594-26.5857593 14.6833531 0 26.5857591 11.9024066 26.5857591 26.5857593 0 14.6833524-11.902406 26.5857594-26.5857591 26.5857594-14.6822905 0-26.5857594-11.902407-26.5857594-26.5857594"/></g></svg>

<?xml version="1.0" encoding="UTF-8" standalone="no"?>
<svg width="256px" height="256px" viewBox="0 0 256 256" version="1.1" xmlns="http://www.w3.org/2000/svg" xmlns:xlink="http://www.w3.org/1999/xlink" preserveAspectRatio="xMidYMid">
    <g fill="#CF272D">
        <path d="M127.859784,222.303602 C75.8546058,222.303602 33.6963983,180.145394 33.6963983,128.141278 C33.6963983,76.1360996 75.8546058,33.9778921 127.859784,33.9778921 C179.8639,33.9778921 222.022108,76.1360996 222.022108,128.141278 C222.022108,180.145394 179.8639,222.303602 127.859784,222.303602 L127.859784,222.303602 Z M127.859784,0.281493776 C57.2452116,0.281493776 0,57.5267054 0,128.141278 C0,198.755851 57.2452116,256 127.859784,256 C198.474357,256 255.718506,198.755851 255.718506,128.141278 C255.718506,57.5267054 198.474357,0.281493776 127.859784,0.281493776 L127.859784,0.281493776 Z"></path>
        <path d="M133.115751,96.2974274 C133.115751,81.6151369 145.01922,69.711668 159.70151,69.711668 C174.384863,69.711668 186.28727,81.6151369 186.28727,96.2974274 C186.28727,110.98078 174.384863,122.883187 159.70151,122.883187 C145.01922,122.883187 133.115751,110.98078 133.115751,96.2974274"></path>
        <path d="M133.115751,159.983004 C133.115751,145.300714 145.01922,133.397245 159.70151,133.397245 C174.384863,133.397245 186.28727,145.300714 186.28727,159.983004 C186.28727,174.666357 174.384863,186.568763 159.70151,186.568763 C145.01922,186.568763 133.115751,174.666357 133.115751,159.983004"></path>
        <path d="M69.4312365,159.983004 C69.4312365,145.300714 81.3347054,133.397245 96.0169959,133.397245 C110.700349,133.397245 122.602755,145.300714 122.602755,159.983004 C122.602755,174.666357 110.700349,186.568763 96.0169959,186.568763 C81.3347054,186.568763 69.4312365,174.666357 69.4312365,159.983004"></path>
        <path d="M69.4312365,96.2984896 C69.4312365,81.6151369 81.3347054,69.7127303 96.0169959,69.7127303 C110.700349,69.7127303 122.602755,81.6151369 122.602755,96.2984896 C122.602755,110.981842 110.700349,122.884249 96.0169959,122.884249 C81.3347054,122.884249 69.4312365,110.981842 69.4312365,96.2984896"></path>
    </g>
</svg>
